svg/300/outlined/camera_outdoor.svg

<svg xmlns="http://www.w3.org/2000/svg" width="48" height="48" viewBox="0 -960 960 960"><path d="M503.461-225.77q-11.884 0-20.173-8.481Q475-242.732 475-254.616v-167.308q0-11.499 8.288-19.98 8.289-8.481 20.173-8.481h171.154q11.499 0 19.98 8.481t8.481 19.98v60.385l76.923-43.307v133.537l-76.923-43.307v60q0 11.884-8.481 20.365-8.481 8.481-19.98 8.481H503.461Zm-323.46 85.769v-449.998L480-815.383l299.999 225.384v99.229h-45.384v-76.537L480-758.461 225.385-567.307v381.922h554.614v45.384H180.001ZM480-471.615Z"/></svg>

<svg xmlns="http://www.w3.org/2000/svg" width="48" height="48" viewBox="0 -960 960 960"><path d="M503.46-225.77q-11.88 0-20.17-8.48-8.29-8.48-8.29-20.37v-167.3q0-11.5 8.29-19.98t20.17-8.48h171.15q11.5 0 19.99 8.48 8.48 8.48 8.48 19.98v60.38L780-404.85v133.54l-76.92-43.31v60q0 11.89-8.48 20.37-8.49 8.48-19.99 8.48H503.46ZM180-140v-450l300-225.38L780-590v99.23h-45.39v-76.54L480-758.46 225.39-567.31v381.92H780V-140H180Zm300-331.62Z"/></svg>
